X: 22486
T: Lady Charlotte Campbell's
R: reel
M: 4/4
K: Gminor
F|B3f dBfd|edcB AFcA|B2 bf dBfB|AFec dBB:|
d|f2 (db) g2 (Ee)|c2 (Aa) f2 (Dd)|B2 (Gg) edcB|AFec dBBf|
dBba gfed|cAag fedc|BGgf edcB|AFec dBB||

